src/icons/outline/metrics/graph.svg

<svg width="24" height="24" viewBox="0 0 24 24" fill="none" xmlns="http://www.w3.org/2000/svg">
<g clip-path="url(#clip0_6019_1064)">
<path fill-rule="evenodd" clip-rule="evenodd" d="M13.3809 8.2998C14.1639 8.31 14.7859 8.92296 14.7959 9.70605V21.5137H16.0518V14.2744C16.0518 13.4812 16.6739 12.8685 17.457 12.8584H20.2188C21.0018 12.8686 21.6237 13.4815 21.6338 14.2646V21.5137H22.2568C22.6685 21.5137 23 21.8452 23 22.2568C23 22.6685 22.6685 23 22.2568 23H1.74316C1.33149 23 1 22.6685 1 22.2568C1 21.8452 1.33148 21.5137 1.74316 21.5137H2.36523V17.0156C2.37527 16.2224 2.9981 15.5999 3.78125 15.5898H6.54297C7.32601 15.6001 7.94824 16.2228 7.94824 17.0059V21.5137H9.20312V9.71582C9.21317 8.92263 9.83601 8.30992 10.6191 8.2998H13.3809ZM3.8418 21.5137H6.47266V17.0654H3.79102L3.8418 21.5137ZM10.6895 21.5137H13.3105V9.77539H10.6289L10.6895 21.5137ZM17.5176 21.5137H20.1484V14.335H17.4668L17.5176 21.5137Z" fill="#3C3B44"/>
<path fill-rule="evenodd" clip-rule="evenodd" d="M9.26367 1C10.3682 1 11.282 1.85377 11.3623 2.94824L19.2148 5.26758C19.5964 4.75556 20.2089 4.42383 20.8916 4.42383C22.0561 4.42403 22.9998 5.3778 23 6.53223C23 7.68681 22.006 8.64139 20.8916 8.6416C19.7772 8.6416 18.8635 7.76784 18.793 6.68359L10.9502 4.37402C10.5686 4.8859 9.95634 5.2168 9.26367 5.2168C9.02271 5.21679 8.79189 5.17672 8.58105 5.10645L4.93652 9.5752C5.11708 9.88628 5.21672 10.2476 5.2168 10.6289C5.2168 11.7937 4.27315 12.7383 3.1084 12.7383C1.94374 12.7382 1 11.7936 1 10.6289C1.00023 9.46441 1.94388 8.52062 3.1084 8.52051C3.33934 8.52051 3.57039 8.56127 3.78125 8.6416L7.44629 4.16309C7.25551 3.85181 7.15527 3.48996 7.15527 3.1084C7.15539 1.94376 8.09902 1.00004 9.26367 1ZM3.1084 10.0068C2.76724 10.0069 2.48655 10.2777 2.48633 10.6289C2.48633 10.9803 2.7671 11.2616 3.1084 11.2617C3.45983 11.2617 3.74121 10.9803 3.74121 10.6289C3.7411 10.4584 3.67089 10.3079 3.56055 10.1875C3.54046 10.1775 3.52985 10.1475 3.50977 10.1475C3.39935 10.0572 3.2589 10.0068 3.1084 10.0068ZM20.8916 5.90039C20.6105 5.90039 20.3892 6.07062 20.2988 6.31152C20.2988 6.32147 20.2893 6.34143 20.2891 6.35156C20.279 6.37164 20.2786 6.3923 20.2686 6.40234C20.2586 6.44234 20.2588 6.49222 20.2588 6.53223C20.2588 6.87362 20.5402 7.15527 20.8916 7.15527C21.2328 7.15508 21.5137 6.88353 21.5137 6.53223C21.5135 6.18109 21.2327 5.90059 20.8916 5.90039ZM9.26367 2.48633C8.92238 2.48637 8.64172 2.76713 8.6416 3.1084C8.6416 3.2791 8.71181 3.44005 8.82227 3.56055L8.8623 3.60059H8.87207C8.9825 3.69094 9.11309 3.74119 9.26367 3.74121C9.53478 3.74121 9.77612 3.56032 9.85645 3.31934C9.85654 3.30925 9.86621 3.28929 9.86621 3.2793C9.86623 3.26924 9.88672 3.23926 9.88672 3.23926H9.89648V3.1084C9.89636 2.7671 9.60499 2.48633 9.26367 2.48633Z" fill="#3C3B44"/>
</g>
<defs>
<clipPath id="clip0_6019_1064">
<rect width="24" height="24" fill="white"/>
</clipPath>
</defs>
</svg>

<svg xmlns="http://www.w3.org/2000/svg" width="24" height="24" fill="none" viewBox="0 0 24 24"><g fill="currentColor" fill-rule="evenodd" clip-path="url(#a)" clip-rule="evenodd"><path d="M13.38 8.3c.784.01 1.406.623 1.416 1.406v11.808h1.256v-7.24c0-.793.622-1.405 1.405-1.416h2.762a1.42 1.42 0 0 1 1.415 1.407v7.249h.623a.74.74 0 0 1 .743.743.74.74 0 0 1-.743.743H1.743A.74.74 0 0 1 1 22.257a.74.74 0 0 1 .743-.743h.622v-4.498a1.43 1.43 0 0 1 1.416-1.426h2.762c.783.01 1.405.633 1.405 1.416v4.508h1.255V9.716A1.42 1.42 0 0 1 10.62 8.3zM3.843 21.514h2.63v-4.449H3.792zm6.848 0h2.62V9.775H10.63zm6.828 0h2.63v-7.179h-2.681z"/><path d="M9.264 1c1.104 0 2.018.854 2.098 1.948l7.853 2.32a2.1 2.1 0 0 1 1.677-.844c1.164 0 2.108.954 2.108 2.108s-.994 2.11-2.108 2.11a2.107 2.107 0 0 1-2.099-1.958l-7.843-2.31a2.1 2.1 0 0 1-1.686.843c-.241 0-.472-.04-.683-.11L4.937 9.574A2.109 2.109 0 1 1 3.109 8.52c.23 0 .461.041.672.122l3.665-4.479a2 2 0 0 1-.29-1.055A2.106 2.106 0 0 1 9.263 1m-6.156 9.007a.62.62 0 0 0-.622.622.628.628 0 1 0 1.255 0 .65.65 0 0 0-.18-.441c-.02-.01-.031-.04-.051-.04a.63.63 0 0 0-.402-.141M20.892 5.9a.62.62 0 0 0-.593.412c0 .01-.01.03-.01.04-.01.02-.01.04-.02.05-.01.04-.01.09-.01.13a.628.628 0 0 0 1.255 0 .627.627 0 0 0-.622-.632M9.264 2.486a.625.625 0 0 0-.622.622c0 .171.07.332.18.453l.04.04h.01c.11.09.241.14.392.14a.63.63 0 0 0 .592-.422c0-.01.01-.03.01-.04s.02-.04.02-.04h.01v-.13a.634.634 0 0 0-.632-.623"/></g><defs><clipPath id="a"><path fill="currentColor" d="M0 0h24v24H0z"/></clipPath></defs></svg>
